public/img/homepage/smiley-main-title.svg

<svg fill="none" height="55" viewBox="0 0 170 55" width="170" xmlns="http://www.w3.org/2000/svg"><g clip-rule="evenodd" fill="#fff" fill-rule="evenodd"><path d="m165.95 25.5531c0-.2003-.07-.3762-.216-.5221-.143-.1402-.341-.2117-.581-.2117h-.824v1.4719h.824c.24 0 .438-.0701.581-.2146.146-.143.216-.3147.216-.5235zm0 3.3671-1.001-1.9281h-.62v1.9281h-.896v-4.8576h1.831c.234 0 .443.0401.635.1216.191.0772.355.1888.492.319.138.1316.242.2989.324.4849.077.1759.117.369.117.565 0 .3504-.09.6351-.279.8525-.19.2203-.411.3748-.68.4692l1.084 2.0454zm2.651-2.4245c0-.5078-.095-.9912-.281-1.4318-.192-.4563-.442-.8411-.766-1.1643-.324-.3305-.705-.5808-1.136-.781-.438-.186-.903-.279-1.413-.279-.503 0-.982.093-1.421.279-.436.2002-.816.4505-1.141.781-.322.3232-.577.708-.766 1.1643-.185.4406-.281.924-.281 1.4318 0 .5192.096.9998.281 1.4447.189.4463.444.8339.766 1.1586.325.3276.705.5951 1.141.7781.439.1903.918.289 1.421.289.51 0 .975-.0987 1.413-.289.431-.183.812-.4505 1.136-.7781.324-.3247.574-.7123.766-1.1586.186-.4449.281-.9255.281-1.4447zm.899 0c0 .6251-.113 1.213-.357 1.7594-.237.5421-.554 1.0184-.953 1.4275-.407.3991-.881.7252-1.432.9627-.544.2331-1.136.3547-1.753.3547-.629 0-1.204-.1216-1.76-.3547-.54-.2375-1.014-.5636-1.425-.9627-.405-.4091-.727-.8854-.966-1.4275-.231-.5464-.354-1.1343-.354-1.7594 0-.6165.123-1.2001.354-1.7451.239-.5464.561-1.0241.966-1.4318.411-.4005.885-.7266 1.425-.9684.556-.2302 1.131-.3504 1.76-.3504.617 0 1.209.1202 1.753.3504.551.2418 1.025.5679 1.432.9684.399.4077.716.8854.953 1.4318.244.545.357 1.1286.357 1.7451z"/><path d="m.653143 26.4916 3.002247-3.8065c.2228-.2829.61688-.3168.88981-.0913 2.49955 2.0704 5.13417 3.3628 8.2882 3.3628 2.6444 0 4.2416-1.1126 4.2416-2.934v-.0884c0-1.7315-1.0096-2.6216-5.921-3.9552-5.92369-1.6004-9.74333-3.3334-9.74333-9.51089v-.08989c0-5.64403 4.28335-9.37822 10.28923-9.37822 4.0494 0 7.5362 1.27175 10.4229 3.55294.2785.21957.337.64545.1407.94754l-2.65 4.06576c-.1977.30357-.5918.37431-.8828.17095-2.423-1.68732-4.8056-2.69086-7.1157-2.69086-2.47871 0-3.7807 1.19954-3.7807 2.71001v.0899c0 2.04396 1.26022 2.71006 6.3429 4.08786 5.9627 1.6461 9.3228 3.9125 9.3228 9.334v.0884c0 6.1775-4.4505 9.6435-10.7933 9.6435-4.24577 0-8.52912-1.4943-11.974184-4.5241-.278501-.2431-.309136-.6926-.079373-.9843"/><path d="m29.1566 1h6.0912c.2274 0 .4392.12188.5586.32012l7.6943 12.78708 7.6929-12.78708c.1194-.19824.3298-.32012.5557-.32012h6.0955c.3624 0 .6552.30396.6552.67841v29.64169c0 .3759-.2928.6799-.6552.6799h-5.2428c-.3638 0-.6566-.304-.6566-.6799v-19.558l-8.4447 13.2408h-.172l-8.358-13.1101v19.4273c0 .3759-.2942.6799-.6566.6799h-5.1575c-.3624 0-.6566-.304-.6566-.6799v-29.64169c0-.37445.2942-.67841.6566-.67841"/><path d="m67.0966 1h4.8068c.3293 0 .5966.30396.5966.67841v29.64169c0 .3759-.2673.6799-.5966.6799h-4.8068c-.3293 0-.5966-.304-.5966-.6799v-29.64169c0-.37445.2673-.67841.5966-.67841"/><path d="m82.202 1h5.639c.3881 0 .702.30396.702.67841v24.12189h15.256c.387 0 .701.304.701.6784v4.8414c0 .3759-.314.6799-.701.6799h-22.299v-30.32159c0-.37445.3139-.67841.702-.67841"/><path d="m109.161 1h21.463c.367 0 .663.30396.663.67841v4.70926c0 .37444-.296.67841-.663.67841h-15.523v6.28932h13.583c.363 0 .66.3025.66.6769v4.7122c0 .3744-.297.6784-.66.6784h-13.583v6.5096h15.735c.368 0 .664.3054.664.6798v4.7078c0 .3759-.296.6799-.664.6799h-21.675c-.365 0-.661-.304-.661-.6799v-29.64169c0-.37445.296-.67841.661-.67841"/><path d="m146.038 19.7768-11.43-17.73422c-.29-.4508.038-1.04258.582-1.04258h6.452c.243 0 .468.12628.592.33186l7.316 12.11304 7.445-12.11597c.125-.20411.347-.32893.589-.32893h6.225c.545 0 .874.59325.582 1.04552l-11.424 17.59768v11.6784c0 .3744-.31.6784-.689.6784h-5.551c-.382 0-.689-.304-.689-.6784z"/></g></svg>

<svg width="170" height="55" viewBox="0 0 170 55" fill="none" xmlns="http://www.w3.org/2000/svg">
<path fill-rule="evenodd" clip-rule="evenodd" d="M165.95 25.5531C165.95 25.3528 165.88 25.1769 165.734 25.031C165.591 24.8908 165.393 24.8193 165.153 24.8193H164.329V26.2912H165.153C165.393 26.2912 165.591 26.2211 165.734 26.0766C165.88 25.9336 165.95 25.7619 165.95 25.5531V25.5531ZM165.95 28.9202L164.949 26.9921H164.329V28.9202H163.433V24.0626H165.264C165.498 24.0626 165.707 24.1027 165.899 24.1842C166.09 24.2614 166.254 24.373 166.391 24.5032C166.529 24.6348 166.633 24.8021 166.715 24.9881C166.792 25.164 166.832 25.3571 166.832 25.5531C166.832 25.9035 166.742 26.1882 166.553 26.4056C166.363 26.6259 166.142 26.7804 165.873 26.8748L166.957 28.9202H165.95ZM168.601 26.4957C168.601 25.9879 168.506 25.5045 168.32 25.0639C168.128 24.6076 167.878 24.2228 167.554 23.8996C167.23 23.5691 166.849 23.3188 166.418 23.1186C165.98 22.9326 165.515 22.8396 165.005 22.8396C164.502 22.8396 164.023 22.9326 163.584 23.1186C163.148 23.3188 162.768 23.5691 162.443 23.8996C162.121 24.2228 161.866 24.6076 161.677 25.0639C161.492 25.5045 161.396 25.9879 161.396 26.4957C161.396 27.0149 161.492 27.4955 161.677 27.9404C161.866 28.3867 162.121 28.7743 162.443 29.099C162.768 29.4266 163.148 29.6941 163.584 29.8771C164.023 30.0674 164.502 30.1661 165.005 30.1661C165.515 30.1661 165.98 30.0674 166.418 29.8771C166.849 29.6941 167.23 29.4266 167.554 29.099C167.878 28.7743 168.128 28.3867 168.32 27.9404C168.506 27.4955 168.601 27.0149 168.601 26.4957V26.4957ZM169.5 26.4957C169.5 27.1208 169.387 27.7087 169.143 28.2551C168.906 28.7972 168.589 29.2735 168.19 29.6826C167.783 30.0817 167.309 30.4078 166.758 30.6453C166.214 30.8784 165.622 31 165.005 31C164.376 31 163.801 30.8784 163.245 30.6453C162.705 30.4078 162.231 30.0817 161.82 29.6826C161.415 29.2735 161.093 28.7972 160.854 28.2551C160.623 27.7087 160.5 27.1208 160.5 26.4957C160.5 25.8792 160.623 25.2956 160.854 24.7506C161.093 24.2042 161.415 23.7265 161.82 23.3188C162.231 22.9183 162.705 22.5922 163.245 22.3504C163.801 22.1202 164.376 22 165.005 22C165.622 22 166.214 22.1202 166.758 22.3504C167.309 22.5922 167.783 22.9183 168.19 23.3188C168.589 23.7265 168.906 24.2042 169.143 24.7506C169.387 25.2956 169.5 25.8792 169.5 26.4957V26.4957Z" fill="white"/>
<path fill-rule="evenodd" clip-rule="evenodd" d="M0.653143 26.4916L3.65539 22.6851C3.87819 22.4022 4.27227 22.3683 4.5452 22.5938C7.04475 24.6642 9.67937 25.9566 12.8334 25.9566C15.4778 25.9566 17.075 24.844 17.075 23.0226V22.9342C17.075 21.2027 16.0654 20.3126 11.154 18.979C5.23031 17.3786 1.41067 15.6456 1.41067 9.46811V9.37822C1.41067 3.73419 5.69402 0 11.6999 0C15.7493 0 19.2361 1.27175 22.1228 3.55294C22.4013 3.77251 22.4598 4.19839 22.2635 4.50048L19.6135 8.56624C19.4158 8.86981 19.0217 8.94055 18.7307 8.73719C16.3077 7.04987 13.9251 6.04633 11.615 6.04633C9.13629 6.04633 7.8343 7.24587 7.8343 8.75634V8.84624C7.8343 10.8902 9.09452 11.5563 14.1772 12.9341C20.1399 14.5802 23.5 16.8466 23.5 22.2681V22.3565C23.5 28.534 19.0495 32 12.7067 32C8.46093 32 4.17758 30.5057 0.732516 27.4759C0.454015 27.2328 0.42338 26.7833 0.653143 26.4916" fill="white"/>
<path fill-rule="evenodd" clip-rule="evenodd" d="M29.1566 1H35.2478C35.4752 1 35.687 1.12188 35.8064 1.32012L43.5007 14.1072L51.1936 1.32012C51.313 1.12188 51.5234 1 51.7493 1H57.8448C58.2072 1 58.5 1.30396 58.5 1.67841V31.3201C58.5 31.696 58.2072 32 57.8448 32H52.602C52.2382 32 51.9454 31.696 51.9454 31.3201V11.7621L43.5007 25.0029H43.3287L34.9707 11.8928V31.3201C34.9707 31.696 34.6765 32 34.3141 32H29.1566C28.7942 32 28.5 31.696 28.5 31.3201V1.67841C28.5 1.30396 28.7942 1 29.1566 1" fill="white"/>
<path fill-rule="evenodd" clip-rule="evenodd" d="M67.0966 1H71.9034C72.2327 1 72.5 1.30396 72.5 1.67841V31.3201C72.5 31.696 72.2327 32 71.9034 32H67.0966C66.7673 32 66.5 31.696 66.5 31.3201V1.67841C66.5 1.30396 66.7673 1 67.0966 1" fill="white"/>
<path fill-rule="evenodd" clip-rule="evenodd" d="M82.202 1H87.841C88.2291 1 88.543 1.30396 88.543 1.67841V25.8003H103.799C104.186 25.8003 104.5 26.1043 104.5 26.4787V31.3201C104.5 31.696 104.186 32 103.799 32H81.5V1.67841C81.5 1.30396 81.8139 1 82.202 1" fill="white"/>
<path fill-rule="evenodd" clip-rule="evenodd" d="M109.161 1H130.624C130.991 1 131.287 1.30396 131.287 1.67841V6.38767C131.287 6.76211 130.991 7.06608 130.624 7.06608H115.101V13.3554H128.684C129.047 13.3554 129.344 13.6579 129.344 14.0323V18.7445C129.344 19.1189 129.047 19.4229 128.684 19.4229H115.101V25.9325H130.836C131.204 25.9325 131.5 26.2379 131.5 26.6123V31.3201C131.5 31.696 131.204 32 130.836 32H109.161C108.796 32 108.5 31.696 108.5 31.3201V1.67841C108.5 1.30396 108.796 1 109.161 1" fill="white"/>
<path fill-rule="evenodd" clip-rule="evenodd" d="M146.038 19.7768L134.608 2.04258C134.318 1.59178 134.646 1 135.19 1H141.642C141.885 1 142.11 1.12628 142.234 1.33186L149.55 13.4449L156.995 1.32893C157.12 1.12482 157.342 1 157.584 1H163.809C164.354 1 164.683 1.59325 164.391 2.04552L152.967 19.6432V31.3216C152.967 31.696 152.657 32 152.278 32H146.727C146.345 32 146.038 31.696 146.038 31.3216V19.7768Z" fill="white"/>
</svg>
